X: 163
P: Pols fran \"Alvdal, etter Trond Villa
O: Sweden
Z: 1997 by John Chambers <jc@trillian.mit.edu>
M: 3/4
L: 1/8
K: D
[AD]- \
|: [AD]>b ^g2 {g}a2 | {e}f>a g<e ~f2 | g/a/g/ ~f2  d>f | {d}e>c {A}A<c {c}d>e |
| {e}f2 d/e/f ~g>f |1,3 {c}d/e/c A4 :|2,4 d/e/c {c}d4 :: D/E/F/G/ A2 ~c2 | B/G/B/ A>{B}c {c}d>e |
| {=fe}=f2 d/e/f ~g>f | d/e/c A4 |  D/E/F/G/ A2 ~c2 | B/G/B/ A/B/c/ A2- | A/B/c d/e/f  ~g>f | d/e/c {c}~d4 :|
